!!!COM: Scriabin, Alexander
!!!OTL: Etude
!!!OPR: 8 Etudes
!!!OPS: 42
!!!ONM: 3
!!!ODT: 1903
!!!AGN: Etude
**kern	**kern
*staff2	*staff1
*clefF4	*clefG2
*k[f#c#g#d#a#e#]	*k[f#c#g#d#a#e#]
*F#:	*F#:
*M6/8	*M6/8
=1	=1
8A#L	24ggnLL
.	24ff#
.	24gg
8dn	24ff#
.	24gg
.	24ff#
8c#J	24ee#
.	24gg##X
.	24aa#JJ
8e#L	24ddnLL
.	24cc#
.	24dd
8a#	24cc#
.	24dd
.	24cc#
8f#J	24dd
.	24cc#
.	24ddJJ
=2	=2
8F#L	24ee-XLL
.	24ddn
.	24ee-
8B-X	24dd
.	24ee-
.	24dd
8AnJ	24cc#
.	24ee#X
.	24ff#JJ
8c#L	24b-XLL
.	24an
.	24b-
8f#	24a
.	24b-
.	24a
8dnJ	24b-
.	24a
.	24ddJJ
=3	=3
8G#L	24cc#LL
.	24b#X
.	24cc#
8en	24b#
.	24cc#
.	24b#
8d#J	24cc#
.	24b#
.	24gg#JJ
8c##XL	24aanLL
.	24gg#
.	24aa
8b#X	24gg#
.	24aa
.	24gg#
8d#J	24aa
.	24gg#
.	24ff#JJ
*clefG2	*
=4	=4
8c#L	24ff#LL
.	24ee#
.	24ff#
8an	24ee#
.	24ff#
.	24ee#
8g#J	24ff#
.	24ee#
.	24ccc#JJ
8f##XL	24dddnLL
.	24ccc#
.	24ddd
8ee#	24ccc#
.	24ddd
.	24ccc#
8g#J	24ddd
.	24ccc#
.	24cccnJJ
=5	=5
8d#L	24cccnLL
.	24bb
.	24ccc
8gn	24bb
.	24ccc
.	24bb
8f#J	24aa#
.	24ccc##X
.	24ddd#JJ
8a#L	24ggnLL
.	24ff#
.	24gg
8dd#	24ff#
.	24gg
.	24ff#
8bJ	24gg
.	24ff#
.	24ggJJ
=6	=6
8BL	24aa-XLL
.	24ggn
.	24aa-
8e-X	24gg
.	24aa-
.	24gg
8dnJ	24ff#
.	24aa#X
.	24bbJJ
8f#L	24ee-XLL
.	24ddn
.	24ee-
8b	24dd
.	24ee-
.	24dd
8gnJ	24ee-
.	24dd
.	24ggJJ
=7	=7
8c#L	24ff#LL
.	24ee#
.	24ff#
8an	24ee#
.	24ff#
.	24ee#
8g#J	24ff#
.	24ee#
.	24ccc#JJ
8f##XL	24dddnLL
.	24ccc#
.	24ddd
8ee#	24ccc#
.	24ddd
.	24ccc#
8g#J	24ddd
.	24ccc#
.	24ee#JJ
=8	=8
8f#L	24ggnLL
.	24ff#
.	24gg
8b	24ff#
.	24gg
.	24ff#
8a#J	24gg
.	24ff#
.	24ggJJ
8g##XL	8ff#
8ff#	8r
8a#J	8r
=9	=9
24b-XLL	8cc#L
24an	.
24b-	.
24a	8ffn
24b-	.
24a	.
24b-	8eenJ
24a	.
24b-JJ	.
24aLL	4ccc#
24b-	.
24a	.
24b-	.
24a	.
24b-	.
24a	8gg#
24b-	.
24aJJ	.
=10	=10
8d#L	24ff##XLL
.	24gg#
.	24gg##X
8g#	24aa#
.	24bb
.	24bb#X
8f##XJ	24ccc#
.	24ccc##X
.	24ddd#JJ
8bL	4r
8dd#	.
8a#J	8r
=11	=11
24a-XLL	8bL
24gn	.
24a-	.
24g	8ee-X
24a-	.
24g	.
24a-	8ddnJ
24g	.
24a-JJ	.
24gLL	4bb
24a-	.
24g	.
24a-	.
24g	.
24a-	.
24g	8ff#
24a-	.
24gJJ	.
=12	=12
8c#L	24ee#LL
.	24ff#
.	24ff##X
8f#	24gg#
.	24gg##X
.	24aa#
8e#J	24bb
.	24bb#X
.	24ccc#JJ
8anL	4r
8cc#	.
8g#J	8r
=13	=13
8d#L	24cccnLL
.	24bb
.	24ccc
8gn	24bb
.	24ccc
.	24bb
8f#J	24aa#
.	24ccc##X
.	24ddd#JJ
8a#L	24ggnLL
.	24ff#
.	24gg
8dd#	24ff#
.	24gg
.	24ff#
8bJ	24gg
.	24ff#
.	24ggJJ
=14	=14
8BL	24aa-XLL
.	24ggn
.	24aa-
8e-X	24gg
.	24aa-
.	24gg
8dnJ	24ff#
.	24aa#X
.	24bbJJ
8f#L	24ee-XLL
.	24ddn
.	24ee-
8b	24dd
.	24ee-
.	24dd
8gnJ	24ee-
.	24dd
.	24ggJJ
=15	=15
8c#L	24ff#LL
.	24ee#
.	24ff#
8an	24ee#
.	24ff#
.	24ee#
8g#J	24ff#
.	24ee#
.	24ccc#JJ
8f##XL	24dddnLL
.	24ccc#
.	24ddd
8ee#	24ccc#
.	24ddd
.	24ccc#
8g#J	24ddd
.	24ccc#
.	24bbJJ
=16	=16
8c##XL	24aa#LL
.	24gg##X
.	24aa#
8f#	24gg##
.	24aa#
.	24gg##
8e#J	24aa#
.	24gg##
.	24aa#JJ
8g##XL	8ee#
8cc##X	8r
8a#J	8r
=17	=17
24gnLL	8ee-XL
24a-X	.
24g	.
24a-	8ccc-X
24g	.
24a-	.
24g	8bb-XJ
24a-	.
24gJJ	.
24a-LL	8eee-XL
24g	.
24a-	.
24g	8aan
24a-	.
24g	.
24a-	8bb-J
24g	.
24a-JJ	.
=18	=18
8gnL	24cccnLL
.	24bbn
.	24ccc
8ee-X	24bb
.	24ccc
.	24bb
8ddnJ	24ccc
.	24bb
.	24cccJJ
8cc#L	24bbLL
.	24ccc
.	24bbJJ
8dd	8r
8f#J	8r
=19	=19
24f#LL	8cc#L
24e#	.
24f#	.
24e#	8aan
24f#	.
24e#	.
24f#	8gg#J
24e#	.
24f#JJ	.
24e#LL	8ccc#L
24f#	.
24e#	.
24f#	8ff##X
24e#	.
24f#	.
24e#	8gg#J
24f#	.
24e#JJ	.
=20	=20
8enL	24bbLL
.	24aa#
.	24bb
8ddn	24aa#
.	24bb
.	24aa#
8cc#J	24bb
.	24aa#
.	24bbJJ
8b#XL	24aa#LL
.	24bb
.	24aa#JJ
8cc#	8r
8eJ	8r
=21	=21
24enLL	8bL
24d#	.
24e	.
24d#	8ggn
24e	.
24d#	.
24e	8ff#J
24d#	.
24eJJ	.
24d#LL	8bbL
24e	.
24d#	.
24e	8ee#
24d#	.
24e	.
24d#	8ff#J
24e	.
24d#JJ	.
=22	=22
8dnL	24aa#LL
.	24gg##X
.	24aa#
8cc#	24gg##
.	24aa#
.	24gg##
8b#XJ	24aa#
.	24gg##
.	24aa#JJ
4ff#	24gg##LL
.	24aa#
.	24gg##
.	24aa#
.	24gg##
.	24aa#
8b#	24gg##
.	24aa#
.	24ff#JJ
=23	=23
8c#L	24ff#LL
.	24ee#
.	24ff#
8cc#	24ee#
.	24ff#
.	24ee#
8bJ	24ff#
.	24ee#
.	24ccc#JJ
8a#L	24dddnLL
.	24ccc#
.	24ddd
8ee#	24ccc#
.	24ddd
.	24ccc#
8bJ	24ddd
.	24ccc#
.	24ee#JJ
=24	=24
8f#L	24ggnLL
.	24ff#
.	24gg
8b	24ff#
.	24gg
.	24ff#
8a#J	24gg
.	24ff#
.	24ggJJ
8g##XL	8ff#
8ff#	8r
8a#J	8r
=25	=25
24gnLL	8ee-XL
24a-X	.
24g	.
24a-	8ccc-X
24g	.
24a-	.
24g	8bb-XJ
24a-	.
24gJJ	.
24a-LL	8eee-XL
24g	.
24a-	.
24g	8aan
24a-	.
24g	.
24a-	8bb-J
24g	.
24a-JJ	.
=26	=26
8gnL	24cccnLL
.	24bbn
.	24ccc
8ee-X	24bb
.	24ccc
.	24bb
8ddnJ	24ccc
.	24bb
.	24cccJJ
8cc#L	24bbLL
.	24ccc
.	24bbJJ
8dd	8r
8f#J	8r
=27	=27
24f#LL	8cc#L
24e#	.
24f#	.
24e#	8aan
24f#	.
24e#	.
24f#	8gg#J
24e#	.
24f#JJ	.
24e#LL	8ccc#L
24f#	.
24e#	.
24f#	8ff##X
24e#	.
24f#	.
24e#	8gg#J
24f#	.
24e#JJ	.
=28	=28
8enL	24bbLL
.	24aa#
.	24bb
8ddn	24aa#
.	24bb
.	24aa#
8cc#J	24bb
.	24aa#
.	24bbJJ
8b#XL	24aa#LL
.	24bb
.	24aa#JJ
8cc#	8r
8eJ	8r
=29	=29
24enLL	8bL
24d#	.
24e	.
24d#	8ggn
24e	.
24d#	.
24e	8ff#J
24d#	.
24eJJ	.
24d#LL	8bbL
24e	.
24d#	.
24e	8ee#
24d#	.
24e	.
24d#	8ff#J
24e	.
24d#JJ	.
=30	=30
8dnL	24aa#LL
.	24gg##X
.	24aa#
8cc#	24gg##
.	24aa#
.	24gg##
8b#XJ	24aa#
.	24gg##
.	24aa#JJ
4ff#	24gg##LL
.	24aa#
.	24gg##
.	24aa#
.	24gg##
.	24aa#
8b#	24gg##
.	24aa#
.	24ff#JJ
=31	=31
8c#L	24ff#LL
.	24ee#
.	24ff#
8cc#	24ee#
.	24ff#
.	24ee#
8bJ	24ff#
.	24ee#
.	24ccc#JJ
8a#L	24dddnLL
.	24ccc#
.	24ddd
8ee#	24ccc#
.	24ddd
.	24ccc#
8bJ	24ddd
.	24ccc#
.	24ee#JJ
=32	=32
8f#L	24ggnLL
.	24ff#
.	24gg
8b	24ff#
.	24gg
.	24ff#
8a#J	24gg
.	24ff#
.	24ccc#JJ
4.c# 4.b 4.ee#	24dddnLL
.	24ccc#
.	24ddd
.	24ccc#
.	24ddd
.	24ccc#
.	24ddd
.	24ccc#
.	24ee#JJ
=33	=33
8f# 8a#	24ggnLL
.	24ff#
.	24gg
8r	24ff#
.	24gg
.	24ff#
8r	24gg
.	24ff#
.	24ggJJ
4r	24ff#LL
.	24gg
.	24ff#
.	24gg
.	24ff#
.	24gg
8r	24ff#
.	24gg
.	[24ff#JJ
=34	=34
4F# 4c# 4a#	4ff#] 4aa# 4fff#
8r	8r
4r	4r
8r	8r
==	==
*-	*-
!!!system-decoration: {(*)}
!!!ENC: Bryan Jacob Bell
!!!END: November 2021 to April 2022
!!!PED: Konstantin Igumnov and Yakov Milstein
!!!PTL: A.N. Skryabin: Polnoe sobranie sochinenii dlia fortepiano (Muzgiz)
